X: 1
T: a Gleyzele Vayn    (Am)
O: Klezmatics, Shvaygn-Toyt
S: From transcription by Steve Rauch
Z: 2015 John Chambers <jc:trillian.mit.edu>
R: freilach
M: 2/4
L: 1/16
K: Am
"A"[|\
"Am"A,CEA cedc | c2cc c2c2 |\
"Am"cBA2 "Dm"d2f2 | "Dm"f2ed "Am"e2z2 |\
"Am"A,CEA cedc | c2cc c2c2 |
"C"cGGc "Bb"c_BBA | "Am"A4- AG^FG \
"B"|[|\
"Am"A4-AG^FG | A4-AG^FG |\
"Am"AG^FG AGFG | AG^FG A4 |
"Am"A_BAG A2A2 | "Bb"_B2B2 "Am"A4 |\
"A"[^cA][d_B][cA][_BG] [c2A2][c2A2] | "Gm"[d2_B2][d2B2] "A"[^c4A4] |\
"G"GABc def^f | "C"gece "Dm"d4 |
"C"cGGc "Bb"c_BBA | "Am"A6 "G7"G2 \
"C"|[|\
"C"cde2- e2e2 | efef e2dc |\
"G"d2d2 cBAB | "C"c6 "(G7)"G2 |
"C"cde2- e^fga | _bag^f _edcB |\
"C"cGGc "Bb"c_BBA | "Am"A4 c_BAG \
"D"|:\
"Am"A4 ed2c/d/ | c6 B2 |
"Am"A4 ed2c/d/ | c6 B2 |\
"Am"A4 ed2c/d/ | c6 "(G7)"G2 |\
"C"cGGc "Bb"c_BBA |1 "Am"A4 c_BAG :|2 "Am"A8 |]
